X: 1
M:C|
L:1/8
K:G
uD"^Segno"|\
vGBdf gbzub | afge dBzuc | DFAB cez"4"ue | dBcA G2zuD |
uD|\
vG2BG "4"AGE2 | G2BG F"4"AzuD | vG2BG "4"AGzuf |\
vgedc BG"4"AF |
 gfaf gedB "^Segno""_D.S."|]


